X: 1
T: Berkeley Reel    [Bm]
C: Larry Unger
R: reel
Z: 2018 John Chambers <jc:trillian.mit.edu>
M: C|
L: 1/8
K: Bm
|: "Bm"Bffe fgfe | "G"dBBA "A"ABcA |\
[1,3 "Bm"Bffe fgfe | "G"dBAF "F#m"A2FA :|\
[2,4 "G"B2dB "D"AFED | "Em"EFED "G"B,2D2 ::\
   "Em"EDB,D E2DE |
   "F#m"FAAB AFED |\
[1,3 "G"EDEF EDB,D | EDB,D "A"A,4 :|\
[2   "G"EDEF EDB,D | "A"FABA "Bm"B4 :|\
[4  "Em"EFGE "F#m"FGAc | "G"Bcde "A"fedc |]
